X:1
T:Johnson and the Colonel
M:4/4
L:1/4
K:C
 D| G G3/4- B/4 d A3/4- c/4| B A G d| f e3/4 e/4 d3/4- c/4 B3/4- c/4|\
 d3| B3/4- c/4| d d g B| c d D D3/4 D/4| G G3/4 B/4 d3/4- c/4 A3/4 ^F/4|\
 G ^F G||
